blockchains/ethereum/assets/0x767FE9EDC9E0dF98E07454847909b5E959D7ca0E/logo.svg

<svg width="250" height="250" viewBox="0 0 250 250" fill="none" xmlns="http://www.w3.org/2000/svg">
<g clip-path="url(#clip0_50_11292)">
<path d="M120 239.303C180.601 239.303 229.728 188.129 229.728 125.003C229.728 61.877 180.601 10.7031 120 10.7031C59.3989 10.7031 10.272 61.877 10.272 125.003C10.272 188.129 59.3989 239.303 120 239.303Z" fill="url(#paint0_linear_50_11292)"/>
<path d="M120 250C86.88 250 56.832 236 35.136 213.4C13.44 190.8 0 159.5 0 125C0 90.5 13.44 59.2 35.136 36.6C56.832 14 86.88 0 120 0C153.12 0 183.168 14 204.864 36.6C226.56 59.2 240 90.5 240 125C240 159.5 226.56 190.8 204.864 213.4C183.168 236 153.12 250 120 250ZM41.28 207C61.44 228 89.28 241 120 241C150.72 241 178.56 228 198.72 207C218.88 186 231.36 157 231.36 125C231.36 93 218.88 64 198.72 43C178.56 22 150.72 9 120 9C89.28 9 61.44 22 41.28 43C21.12 64 8.64 93 8.64 125C8.64 157 21.12 186 41.28 207Z" fill="url(#paint1_linear_50_11292)"/>
<path d="M120 246.303C87.84 246.303 58.752 232.703 37.632 210.803C16.608 188.903 3.552 158.503 3.552 125.003C3.552 91.5031 16.608 61.2031 37.632 39.2031C58.752 17.2031 87.84 3.70312 120 3.70312C152.16 3.70312 181.248 17.3031 202.368 39.2031C223.488 61.2031 236.448 91.5031 236.448 125.003C236.448 158.503 223.392 188.803 202.368 210.803C181.248 232.803 152.16 246.303 120 246.303ZM43.584 204.603C63.168 225.003 90.144 237.603 120 237.603C149.856 237.603 176.832 225.003 196.416 204.603C216 184.203 228.096 156.103 228.096 125.003C228.096 93.9031 216 65.8031 196.416 45.4031C176.832 25.0031 149.856 12.4031 120 12.4031C90.144 12.4031 63.168 25.0031 43.584 45.4031C24 65.8031 11.904 93.9031 11.904 125.003C11.904 156.103 24 184.203 43.584 204.603Z" fill="url(#paint2_linear_50_11292)"/>
<path d="M120 67.4016C119.136 93.0016 119.136 120.502 120 146.102C120.768 120.402 120.768 93.0016 120 67.4016ZM92.8319 202.602L92.9279 202.802C93.2159 202.702 93.4079 202.602 93.6959 202.402C98.4959 199.602 103.776 197.602 108.96 195.702C115.584 193.402 122.496 193.202 129.216 195.102C135.072 196.802 140.736 199.102 146.112 202.002C146.496 202.202 146.784 202.602 147.168 202.502C147.072 202.402 147.072 202.302 146.976 202.202C138.528 195.402 130.08 188.702 121.632 181.902C120.48 180.902 119.424 181.002 118.368 182.002C109.92 189.002 101.376 195.802 92.9279 202.502L92.8319 202.602ZM87.8399 105.702C87.2639 106.502 87.5519 107.002 88.1279 107.602C90.1439 109.902 91.3919 112.502 92.2559 115.502C93.2159 119.102 93.6959 122.802 93.8879 126.502C94.1759 132.202 94.0799 138.002 93.9839 143.702C93.8879 151.302 93.7919 159.002 93.8879 166.602C93.9839 175.102 92.8319 183.202 90.2399 191.202C89.2799 194.302 88.2239 197.502 86.7839 200.702C86.9759 200.602 87.2639 200.502 87.4559 200.402C94.8479 194.202 102.144 187.902 109.92 182.202C110.88 181.402 110.88 180.502 110.304 179.502C109.632 178.502 109.056 177.602 108.288 176.702C106.272 174.102 105.504 171.202 105.408 168.002C105.312 163.702 105.216 159.502 105.216 155.302C105.024 139.602 105.12 123.902 104.928 108.202C104.64 88.0016 104.64 68.0016 104.544 47.8016V47.1016H104.256C103.392 55.1016 102.528 63.1016 101.088 71.0016C98.7839 83.4016 95.4239 95.2016 87.9359 105.502L87.8399 105.702ZM135.36 83.7016C135.072 101.702 135.36 119.702 135.072 137.702C134.88 147.002 134.976 156.402 134.976 165.802C134.976 170.602 134.016 174.902 130.752 178.402C130.464 178.802 130.176 179.202 129.888 179.502C129.12 180.602 129.312 181.502 130.464 182.302C137.856 187.802 144.96 193.802 151.968 199.802C152.352 200.102 152.64 200.502 153.216 200.502C150.816 195.002 149.28 189.302 147.936 183.602C147.36 181.402 146.976 179.102 146.784 176.802C146.304 171.202 146.4 165.602 146.304 159.902C146.112 150.302 146.208 140.602 146.208 130.902C146.208 127.602 146.4 124.302 146.784 121.002C147.36 116.602 148.32 112.302 151.008 108.702C152.736 106.302 152.736 106.302 151.104 103.902C145.248 95.2016 142.08 85.4016 139.872 75.1016C137.952 65.9016 136.896 56.6016 135.936 47.1016H135.552C135.36 59.3016 135.36 71.4016 135.264 83.6016L135.36 83.7016Z" fill="white"/>
</g>
<defs>
<linearGradient id="paint0_linear_50_11292" x1="10.272" y1="125.003" x2="229.728" y2="125.003" gradientUnits="userSpaceOnUse">
<stop stop-color="#500586"/>
<stop offset="0.1216" stop-color="#50048B"/>
<stop offset="0.2706" stop-color="#430584"/>
<stop offset="0.4314" stop-color="#311085"/>
<stop offset="0.4902" stop-color="#29188B"/>
<stop offset="0.7412" stop-color="#403965"/>
<stop offset="0.8314" stop-color="#483956"/>
<stop offset="0.9098" stop-color="#2F3D5A"/>
<stop offset="1" stop-color="#2B444A"/>
</linearGradient>
<linearGradient id="paint1_linear_50_11292" x1="0" y1="125" x2="240" y2="125" gradientUnits="userSpaceOnUse">
<stop stop-color="#4C0B57"/>
<stop offset="0.1216" stop-color="#8E04AC"/>
<stop offset="0.2706" stop-color="#242F96"/>
<stop offset="0.4314" stop-color="#2C8D7E"/>
<stop offset="0.5412" stop-color="#5AB33E"/>
<stop offset="0.6392" stop-color="#91AD05"/>
<stop offset="0.7412" stop-color="#2A9D06"/>
<stop offset="0.8314" stop-color="#40A55F"/>
<stop offset="0.9098" stop-color="#6BAC80"/>
<stop offset="1" stop-color="#68B7A9"/>
</linearGradient>
<linearGradient id="paint2_linear_50_11292" x1="3.552" y1="125.003" x2="236.448" y2="125.003" gradientUnits="userSpaceOnUse">
<stop stop-color="#670E78"/>
<stop offset="0.1216" stop-color="#C204EC"/>
<stop offset="0.2706" stop-color="#3140CD"/>
<stop offset="0.4314" stop-color="#3CC1AC"/>
<stop offset="0.5412" stop-color="#7BF555"/>
<stop offset="0.6392" stop-color="#C7ED06"/>
<stop offset="0.7412" stop-color="#3AD609"/>
<stop offset="0.8314" stop-color="#58E283"/>
<stop offset="0.9098" stop-color="#93ECAF"/>
<stop offset="1" stop-color="#8FFAE8"/>
</linearGradient>
<clipPath id="clip0_50_11292">
<rect width="240" height="250" fill="white"/>
</clipPath>
</defs>
</svg>

<svg fill="none" height="250" viewBox="0 0 250 250" width="250" xmlns="http://www.w3.org/2000/svg" xmlns:xlink="http://www.w3.org/1999/xlink"><linearGradient id="a" gradientUnits="userSpaceOnUse" x1="10.272" x2="229.728" y1="125.003" y2="125.003"><stop offset="0" stop-color="#500586"/><stop offset=".1216" stop-color="#50048b"/><stop offset=".2706" stop-color="#430584"/><stop offset=".4314" stop-color="#311085"/><stop offset=".4902" stop-color="#29188b"/><stop offset=".7412" stop-color="#403965"/><stop offset=".8314" stop-color="#483956"/><stop offset=".9098" stop-color="#2f3d5a"/><stop offset="1" stop-color="#2b444a"/></linearGradient><linearGradient id="b" gradientUnits="userSpaceOnUse" x1="0" x2="240" y1="125" y2="125"><stop offset="0" stop-color="#4c0b57"/><stop offset=".1216" stop-color="#8e04ac"/><stop offset=".2706" stop-color="#242f96"/><stop offset=".4314" stop-color="#2c8d7e"/><stop offset=".5412" stop-color="#5ab33e"/><stop offset=".6392" stop-color="#91ad05"/><stop offset=".7412" stop-color="#2a9d06"/><stop offset=".8314" stop-color="#40a55f"/><stop offset=".9098" stop-color="#6bac80"/><stop offset="1" stop-color="#68b7a9"/></linearGradient><linearGradient id="c" gradientUnits="userSpaceOnUse" x1="3.552" x2="236.448" y1="125.003" y2="125.003"><stop offset="0" stop-color="#670e78"/><stop offset=".1216" stop-color="#c204ec"/><stop offset=".2706" stop-color="#3140cd"/><stop offset=".4314" stop-color="#3cc1ac"/><stop offset=".5412" stop-color="#7bf555"/><stop offset=".6392" stop-color="#c7ed06"/><stop offset=".7412" stop-color="#3ad609"/><stop offset=".8314" stop-color="#58e283"/><stop offset=".9098" stop-color="#93ecaf"/><stop offset="1" stop-color="#8ffae8"/></linearGradient><clipPath id="d"><path d="m0 0h240v250h-240z"/></clipPath><g clip-path="url(#d)"><path d="m120 239.303c60.601 0 109.728-51.174 109.728-114.3s-49.127-114.2999-109.728-114.2999c-60.6011 0-109.728 51.1739-109.728 114.2999s49.1269 114.3 109.728 114.3z" fill="url(#a)"/><path d="m120 250c-33.12 0-63.168-14-84.864-36.6s-35.136-53.9-35.136-88.4 13.44-65.8 35.136-88.4 51.744-36.6 84.864-36.6 63.168 14 84.864 36.6 35.136 53.9 35.136 88.4-13.44 65.8-35.136 88.4-51.744 36.6-84.864 36.6zm-78.72-43c20.16 21 48 34 78.72 34s58.56-13 78.72-34 32.64-50 32.64-82-12.48-61-32.64-82-48-34-78.72-34-58.56 13-78.72 34-32.64 50-32.64 82 12.48 61 32.64 82z" fill="url(#b)"/><path d="m120 246.303c-32.16 0-61.248-13.6-82.368-35.5-21.024-21.9-34.08-52.3-34.08-85.8 0-33.4999 13.056-63.7999 34.08-85.7999 21.12-22 50.208-35.49998 82.368-35.49998s61.248 13.59998 82.368 35.49998c21.12 22 34.08 52.3 34.08 85.7999 0 33.5-13.056 63.8-34.08 85.8-21.12 22-50.208 35.5-82.368 35.5zm-76.416-41.7c19.584 20.4 46.56 33 76.416 33s56.832-12.6 76.416-33 31.68-48.5 31.68-79.6c0-31.0999-12.096-59.1999-31.68-79.5999s-46.56-33-76.416-33-56.832 12.6-76.416 33-31.68 48.5-31.68 79.5999c0 31.1 12.096 59.2 31.68 79.6z" fill="url(#c)"/><path d="m120 67.4016c-.864 25.6-.864 53.1004 0 78.7004.768-25.7.768-53.1004 0-78.7004zm-27.1681 135.2004.096.2c.288-.1.48-.2.768-.4 4.8-2.8 10.0801-4.8 15.2641-6.7 6.624-2.3 13.536-2.5 20.256-.6 5.856 1.7 11.52 4 16.896 6.9.384.2.672.6 1.056.5-.096-.1-.096-.2-.192-.3-8.448-6.8-16.896-13.5-25.344-20.3-1.152-1-2.208-.9-3.264.1-8.448 7-16.992 13.8-25.4401 20.5zm-4.992-96.9c-.576.8-.288 1.3.288 1.9 2.016 2.3 3.264 4.9 4.128 7.9.96 3.6 1.44 7.3 1.632 11 .288 5.7.192 11.5.096 17.2-.096 7.6-.192 15.3-.096 22.9.096 8.5-1.056 16.6-3.648 24.6-.96 3.1-2.016 6.3-3.456 9.5.192-.1.48-.2.672-.3 7.392-6.2 14.6881-12.5 22.4641-18.2.96-.8.96-1.7.384-2.7-.672-1-1.248-1.9-2.016-2.8-2.016-2.6-2.784-5.5-2.88-8.7-.096-4.3-.192-8.5-.192-12.7-.192-15.7-.096-31.4-.288-47.1-.288-20.2004-.288-40.2004-.384-60.4004v-.7h-.288c-.864 8-1.728 16-3.168 23.9-2.3041 12.4-5.6641 24.2-13.1521 34.5004zm47.5201-22.0004c-.288 18.0004 0 36.0004-.288 54.0004-.192 9.3-.096 18.7-.096 28.1 0 4.8-.96 9.1-4.224 12.6-.288.4-.576.8-.864 1.1-.768 1.1-.576 2 .576 2.8 7.392 5.5 14.496 11.5 21.504 17.5.384.3.672.7 1.248.7-2.4-5.5-3.936-11.2-5.28-16.9-.576-2.2-.96-4.5-1.152-6.8-.48-5.6-.384-11.2-.48-16.9-.192-9.6-.096-19.3-.096-29 0-3.3.192-6.6.576-9.9.576-4.4 1.536-8.7 4.224-12.3 1.728-2.4 1.728-2.4.096-4.8-5.856-8.7004-9.024-18.5004-11.232-28.8004-1.92-9.2-2.976-18.5-3.936-28h-.384c-.192 12.2-.192 24.3-.288 36.5z" fill="#fff"/></g></svg>
